!!!OTL: 94. Der Schleswigsche Krieger auf der Wacht (1849).
!!!COM: Volksweise
!!!ODT: 1844
!!!ARE: Europa, Mitteleuropa, Deutschland, Schleswig
!!!SCT: B0094
!!!TXL: @@DE
!!!YEM: Copyright 1995, estate of Helmut Schaffrath.
**kern	**text
*ICvox	*
*Ivox	*
*M4/4	*
*met(c)	*
*clefG2	*
*k[b-e-]	*
*B-:	*
!LO:TX:a:t=Mäßig.	!
{4f	Es
=1	=1
4.b-	war
8a	auf
4b-	Jüt-
4cc	-lands
=2	=2
(4b-/	Au-
4a)	.
4g}	-en,
{4f	es
=3	=3
4b-	war
4a	am
4b-	klei-
4cc	-nen
=4	=4
2f	Belt,
4r}	.
{4a	da
=5	=5
4.cc	ſtand
8bn	ein
4cc	jun-
4dd	-ger
=6	=6
(4.ee-	Krie-
8dd)	.
4cc}	-ger
{4b-/	bei
=7	=7
4a	dunk-
4f	-ler
4.dd	Nacht
8cc	im
=8	=8
2b-	Feld.
4r}	.
{4d	Das
=9	=9
4g	Au-
4b-/	-ge
4.a	trüb,
8g	die
=10	=10
4f#	Wan-
4a	-ge
4dd	bleich,
8r}	.
{8dd	ſo
=11	=11
4.ee-	ſang
8dd	er
8cc	wehmuthsvoll
8b-	.
8a	.
8g	und
=12	=12
2.dd;}	weich:
{8b-L	"Ge-
8ccJ	.
=13	=13
4.dd	-lieb-
8dd	-tes
4ee-	Schles-
4dd	-wig-
=14	=14
2cc	-Hol-
4g}	-ſtein,
{4g	mein
=15	=15
4.f	Va-
8b-	-ter-
4.dd	-land,
8cc	leb
=16	=16
2b-	wohl!
4r}	.
{8b-L	Ge-
8ccJ	.
=17	=17
4.dd	-lieb-
8dd	-tes
4ee-	Schleswig-
4dd	.
=18	=18
(4cc	-Hol-
4gg)	.
4ee-}	-ſtein,
{4cc	mein
=19	=19
4.b-	Va-
8b-	-ter-
4.dd	-land,
8cc	leb
=20	=20
2b-	wohl!"
4r}	.
==	==
!!!AGN: Helden -, Ehren -, Gedaechtnis -, Kriegs - Lied
!!!GTL: Helden- und Ehrengedächtnißlieder
!!!ONB: ESAC (Essen Associative Code) Database: BOEHME
!!!AMT: simple quadruple
!!!AIN: vox
!!!EED: Helmut Schaffrath
!!!EEV: 1.0
!!Volksweiſe: "Ʒu Mantua in Banden", ſeit 1844.
!!@@COMMENT:"Mündlich aus dem Schleswigschen 1891. Diese Melodie, um 1844 entstanden..."
!!@@END:
!!!URL-scan: https://archive.org/details/BoehmeVtLieder1895/page/n104/mode/1up
!!!ENC: Anna Maria Matuszewska
!!!EEV: 2024/17/06
*-	*-
